google-analytics-dashboard-for-wp/lite/assets/vue/img/yir-icon-em-sessions.svg

<svg width="30" height="30" viewBox="0 0 30 30" fill="none" xmlns="http://www.w3.org/2000/svg">
    <path fill-rule="evenodd" clip-rule="evenodd" d="M13.3333 6.66667V0H15C23.2833 0 30 6.71667 30 15C30 23.2833 23.2833 30 15 30C6.70003 30 0 23.2833 0 15C0 10.0833 2.36663 5.75 6.01665 3.01667V2.98333L17.35 14.3167L15 16.6667L5.9667 7.63333C4.31672 9.63333 3.33333 12.2 3.33333 15C3.33333 21.45 8.55 26.6667 15 26.6667C21.45 26.6667 26.6667 21.45 26.6667 15C26.6667 9.11667 22.3167 4.28333 16.6667 3.46667V6.66667H13.3333ZM15 25C14.0833 25 13.3333 24.25 13.3333 23.3333C13.3333 22.4167 14.0833 21.6667 15 21.6667C15.9167 21.6667 16.6667 22.4167 16.6667 23.3333C16.6667 24.25 15.9167 25 15 25ZM25 15C25 14.0833 24.25 13.3333 23.3333 13.3333C22.4167 13.3333 21.6667 14.0833 21.6667 15C21.6667 15.9167 22.4167 16.6667 23.3333 16.6667C24.25 16.6667 25 15.9167 25 15ZM6.66667 16.6667C5.75002 16.6667 5 15.9167 5 15C5 14.0833 5.75002 13.3333 6.66667 13.3333C7.58332 13.3333 8.33333 14.0833 8.33333 15C8.33333 15.9167 7.58332 16.6667 6.66667 16.6667Z" fill="#09A9BF"/>
</svg>

<svg width="30" height="30" fill="none" xmlns="http://www.w3.org/2000/svg"><path fill-rule="evenodd" clip-rule="evenodd" d="M13.333 6.667V0H15c8.283 0 15 6.717 15 15 0 8.283-6.717 15-15 15-8.3 0-15-6.717-15-15 0-4.917 2.367-9.25 6.017-11.983v-.034L17.35 14.317 15 16.667 5.967 7.633A11.53 11.53 0 003.333 15c0 6.45 5.217 11.667 11.667 11.667S26.667 21.45 26.667 15c0-5.883-4.35-10.717-10-11.533v3.2h-3.334zM15 25c-.917 0-1.667-.75-1.667-1.667 0-.916.75-1.666 1.667-1.666s1.667.75 1.667 1.666c0 .917-.75 1.667-1.667 1.667zm10-10c0-.917-.75-1.667-1.667-1.667-.916 0-1.666.75-1.666 1.667s.75 1.667 1.666 1.667c.917 0 1.667-.75 1.667-1.667zM6.667 16.667C5.75 16.667 5 15.917 5 15s.75-1.667 1.667-1.667c.916 0 1.666.75 1.666 1.667s-.75 1.667-1.666 1.667z" fill="#09A9BF"/></svg>
